Simply-Red-Circles/scalable/apps/cs-login.svg

<?xml version="1.0" encoding="UTF-8" standalone="no"?><svg xmlns:dc="http://purl.org/dc/elements/1.1/" xmlns:cc="http://creativecommons.org/ns#" xmlns:rdf="http://www.w3.org/1999/02/22-rdf-syntax-ns#" xmlns="http://www.w3.org/2000/svg" width="48" height="48" viewBox="0 0 12.7 12.7"><metadata><rdf:RDF><cc:Work><dc:format>image/svg+xml</dc:format><dc:type rdf:resource="http://purl.org/dc/dcmitype/StillImage"/><dc:title/></cc:Work></rdf:RDF></metadata><path fill="#a02c2c" d="M6.34.07a6.29 6.29 0 0 0-6.29 6.3 6.29 6.29 0 0 0 6.3 6.28 6.29 6.29 0 0 0 6.28-6.29A6.29 6.29 0 0 0 6.34.07zm-.01.94a5.4 5.4 0 0 1 5.4 5.4 5.4 5.4 0 0 1-5.4 5.41 5.4 5.4 0 0 1-5.41-5.4A5.4 5.4 0 0 1 6.32 1zM3.3 3.73a1.12 1.12 0 0 0-1.13 1.13 1.12 1.12 0 0 0 .34.8H2.4a.54.54 0 0 0-.55.55v1.16c0 .3.24.54.55.54h1.9a.54.54 0 0 0 .55-.55V6.2a.54.54 0 0 0-.54-.54h-.23a1.12 1.12 0 0 0 .34-.8A1.12 1.12 0 0 0 3.3 3.73zm2.84 1.93a.54.54 0 0 0-.54.55v.4c0 .3.24.55.55.55h4.15a.54.54 0 0 0 .55-.54V6.2a.54.54 0 0 0-.55-.55H6.14z"/></svg>

<?xml version="1.0" encoding="UTF-8" standalone="no"?>
<svg
   xmlns:dc="http://purl.org/dc/elements/1.1/"
   xmlns:cc="http://creativecommons.org/ns#"
   xmlns:rdf="http://www.w3.org/1999/02/22-rdf-syntax-ns#"
   xmlns:svg="http://www.w3.org/2000/svg"
   xmlns="http://www.w3.org/2000/svg"
   xmlns:sodipodi="http://sodipodi.sourceforge.net/DTD/sodipodi-0.dtd"
   xmlns:inkscape="http://www.inkscape.org/namespaces/inkscape"
   width="48"
   height="48"
   viewBox="0 0 12.7 12.7"
   version="1.1"
   id="svg6"
   sodipodi:docname="cs-login.svg"
   inkscape:version="0.92.4 (5da689c313, 2019-01-14)">
  <defs
     id="defs10" />
  <sodipodi:namedview
     pagecolor="#ffffff"
     bordercolor="#666666"
     borderopacity="1"
     objecttolerance="10"
     gridtolerance="10"
     guidetolerance="10"
     inkscape:pageopacity="0"
     inkscape:pageshadow="2"
     inkscape:window-width="1087"
     inkscape:window-height="480"
     id="namedview8"
     showgrid="false"
     inkscape:zoom="4.9166667"
     inkscape:cx="2.1355932"
     inkscape:cy="24"
     inkscape:window-x="0"
     inkscape:window-y="25"
     inkscape:window-maximized="0"
     inkscape:current-layer="svg6" />
  <metadata
     id="metadata2">
    <rdf:RDF>
      <cc:Work>
        <dc:format>image/svg+xml</dc:format>
        <dc:type
           rdf:resource="http://purl.org/dc/dcmitype/StillImage" />
        <dc:title></dc:title>
      </cc:Work>
    </rdf:RDF>
  </metadata>
  <path
     d="M 6.34,0.07 A 6.29,6.29 0 0 0 0.05,6.37 6.29,6.29 0 0 0 6.35,12.65 6.29,6.29 0 0 0 12.63,6.36 6.29,6.29 0 0 0 6.34,0.07 Z M 6.33,1.01 a 5.4,5.4 0 0 1 5.4,5.4 5.4,5.4 0 0 1 -5.4,5.41 A 5.4,5.4 0 0 1 0.92,6.42 5.4,5.4 0 0 1 6.32,1 Z M 3.3,3.73 A 1.12,1.12 0 0 0 2.17,4.86 1.12,1.12 0 0 0 2.51,5.66 H 2.4 A 0.54,0.54 0 0 0 1.85,6.21 v 1.16 c 0,0.3 0.24,0.54 0.55,0.54 H 4.3 A 0.54,0.54 0 0 0 4.85,7.36 V 6.2 A 0.54,0.54 0 0 0 4.31,5.66 H 4.08 A 1.12,1.12 0 0 0 4.42,4.86 1.12,1.12 0 0 0 3.3,3.73 Z M 6.14,5.66 A 0.54,0.54 0 0 0 5.6,6.21 v 0.4 c 0,0.3 0.24,0.55 0.55,0.55 H 10.3 A 0.54,0.54 0 0 0 10.85,6.62 V 6.2 A 0.54,0.54 0 0 0 10.3,5.65 H 6.14 Z"
     id="path4"
     inkscape:connector-curvature="0"
     style="fill:#a02c2c" />
</svg>
